X: 20822
M: 6/8
L: 1/8
K: F
V: 1 name="2"
c |\
c2c a2a | faf c2c | ABc def | gba g2c |\
c2c a2a | faf c2c | def gae | (g3 f2) H|]
cdc cde | faf gAB | cdc cBA | G3 GAB |\
cdc cfa | agf ecg | afd GAc | (d3 "^D.C."c2) |]
z |\


